lut/BlueArchitecture.cube
TITLE "Blue Architecture"
# Created by Photon 3D ColorGrading
DOMAIN_MIN 0 0 0
DOMAIN_MAX 1 1 1
LUT_3D_SIZE 9
0.000017 0.000017 0.091356
0.076785 0.000173 0.042889
0.163100 0.000026 0.011149
0.243607 0.000096 0.001319
0.343886 0.002049 0.000151
0.527171 0.024471 0.000060
0.749856 0.089209 0.000059
0.850684 0.131211 0.000123
0.866088 0.137734 0.000177
0.002209 0.046662 0.045361
0.061515 0.038027 0.025915
0.139915 0.033006 0.008431
0.226661 0.032073 0.001347
0.335985 0.035015 0.000312
0.524099 0.058464 0.000148
0.745949 0.115742 0.000020
0.845634 0.146221 0.000021
0.862446 0.146908 0.000185
0.017878 0.106849 0.012836
0.070224 0.095150 0.009140
0.142581 0.090872 0.004251
0.232680 0.096731 0.002457
0.354235 0.113343 0.002256
0.547120 0.150919 0.001310
0.752242 0.199162 0.000847
0.836506 0.206560 0.000650
0.849870 0.190627 0.000700
0.089498 0.225548 0.006520
0.141100 0.214954 0.006582
0.213920 0.214918 0.008566
0.310883 0.233769 0.015635
0.448583 0.272921 0.019394
0.642456 0.328933 0.013947
0.811229 0.367654 0.010640
0.862822 0.353205 0.008382
0.860801 0.316164 0.005775
0.254528 0.443732 0.034366
0.301771 0.433617 0.034882
0.379961 0.434544 0.040664
0.488219 0.459615 0.059274
0.629801 0.509319 0.074926
0.793680 0.567082 0.065251
0.908094 0.594676 0.050865
0.935282 0.573854 0.041573
0.927707 0.528874 0.032065
0.467972 0.712413 0.094138
0.506345 0.705379 0.094041
0.583295 0.702952 0.097347
0.687507 0.716442 0.111436
0.797451 0.746585 0.131115
0.917868 0.795963 0.116163
0.976062 0.809795 0.106483
0.987604 0.790674 0.097288
0.984369 0.752295 0.086140
0.613724 0.908601 0.123230
0.639558 0.906088 0.121052
0.704707 0.899360 0.117704
0.796809 0.895025 0.114277
0.882051 0.900120 0.121881
0.955484 0.920221 0.140162
0.989499 0.926544 0.154358
0.997679 0.917857 0.153572
0.998276 0.899079 0.146955
0.659430 0.972779 0.127472
0.674069 0.971630 0.125600
0.724310 0.962203 0.122464
0.807675 0.946492 0.116448
0.885727 0.936342 0.119292
0.955896 0.950100 0.138725
0.988823 0.954924 0.166391
0.998400 0.954129 0.173871
0.999536 0.949015 0.175428
0.664447 0.981202 0.128296
0.673521 0.980906 0.126827
0.713009 0.972901 0.124759
0.791577 0.955830 0.119862
0.872293 0.941037 0.119298
0.942121 0.947640 0.136808
0.984677 0.958355 0.165495
0.998222 0.960404 0.176418
0.999766 0.957808 0.179468
0.000013 0.000023 0.197325
0.055596 0.000247 0.149565
0.130396 0.000126 0.097835
0.218549 0.000202 0.055885
0.333578 0.003001 0.032085
0.527431 0.023786 0.016743
0.754209 0.091607 0.010124
0.852810 0.130903 0.005701
0.867010 0.135734 0.003611
0.001224 0.041651 0.152666
0.046603 0.036207 0.122335
0.116565 0.031835 0.083584
0.210515 0.028674 0.048254
0.345438 0.030682 0.025984
0.561344 0.059157 0.014573
0.772368 0.118868 0.009423
0.851046 0.144346 0.006655
0.867354 0.140688 0.001657
0.011758 0.105871 0.110769
0.054433 0.100241 0.093053
0.117939 0.093220 0.070627
0.211249 0.091155 0.047680
0.362410 0.102947 0.025822
0.588991 0.139512 0.011586
0.780404 0.183216 0.007034
0.844398 0.184947 0.005374
0.860594 0.165380 0.001306
0.069974 0.231051 0.095678
0.122978 0.234836 0.082181
0.191561 0.230303 0.070876
0.289490 0.234001 0.061033
0.449220 0.264001 0.041618
0.662795 0.310073 0.020705
0.818085 0.332833 0.012886
0.856390 0.306170 0.009893
0.859860 0.260113 0.004578
0.226808 0.450138 0.119335
0.296712 0.472531 0.108581
0.378594 0.476375 0.098122
0.486486 0.483182 0.097373
0.633280 0.514447 0.091577
0.799658 0.552695 0.067148
0.903729 0.558394 0.046897
0.919969 0.521119 0.036361
0.911067 0.465240 0.024846
0.451208 0.719919 0.163005
0.511171 0.746403 0.147640
0.588626 0.751965 0.134269
0.690557 0.750600 0.131266
0.800802 0.760984 0.136650
0.914847 0.786037 0.119387
0.969975 0.781734 0.104088
0.978149 0.753476 0.092832
0.974491 0.714917 0.081728
0.605263 0.911664 0.165399
0.638327 0.923792 0.149764
0.694880 0.922367 0.136197
0.783446 0.911477 0.126310
0.872060 0.905353 0.127801
0.947974 0.913871 0.142297
0.984319 0.912907 0.154963
0.993951 0.902526 0.153579
0.997429 0.888574 0.146812
0.653672 0.973317 0.149649
0.668712 0.973546 0.140563
0.705675 0.967749 0.132514
0.782192 0.952376 0.125176
0.868231 0.937710 0.124589
0.945016 0.944874 0.140858
0.982765 0.948966 0.170826
0.995009 0.949206 0.179497
0.999838 0.947975 0.178148
0.660532 0.981183 0.141505
0.666665 0.982154 0.133601
0.689814 0.978807 0.129166
0.755537 0.964933 0.125151
0.847507 0.946724 0.123268
0.923991 0.940897 0.142919
0.982616 0.959203 0.166296
0.998283 0.960920 0.179446
0.999973 0.958066 0.182647
0.000010 0.000396 0.304779
0.037754 0.000560 0.267057
0.094653 0.000948 0.213972
0.179171 0.001168 0.150596
0.311567 0.007057 0.098330
0.528885 0.044356 0.068961
0.757431 0.106059 0.042821
0.847461 0.138213 0.030562
0.862163 0.139576 0.022003
0.000486 0.039275 0.275031
0.033144 0.035448 0.248877
0.087435 0.031445 0.201996
0.177839 0.027152 0.140512
0.335196 0.030385 0.086323
0.577981 0.064803 0.050134
0.784050 0.125857 0.033908
0.850680 0.145464 0.023351
0.867493 0.139443 0.011792
0.006070 0.109326 0.246349
0.037239 0.105685 0.227359
0.086025 0.095711 0.191459
0.175868 0.087278 0.139556
0.353944 0.094260 0.081743
0.609097 0.132280 0.043363
0.794221 0.172824 0.027101
0.850584 0.167722 0.015063
0.867422 0.150370 0.006186
0.046460 0.243682 0.244425
0.090454 0.253184 0.226409
0.149580 0.244328 0.198110
0.247624 0.233854 0.157845
0.430548 0.249676 0.098410
0.667899 0.284753 0.045821
0.819285 0.295902 0.024331
0.855479 0.260274 0.013023
0.862568 0.214856 0.006154
0.188440 0.468710 0.283028
0.254164 0.502081 0.256866
0.337868 0.508055 0.226038
0.449322 0.499344 0.193009
0.607595 0.507167 0.147054
0.786194 0.523884 0.086735
0.891192 0.512377 0.049377
0.906325 0.462234 0.031014
0.895832 0.398603 0.019884
0.413064 0.742657 0.307659
0.480536 0.778345 0.270430
0.559011 0.788012 0.231710
0.661074 0.773757 0.200098
0.780450 0.764259 0.174453
0.897695 0.764280 0.138506
0.957760 0.745973 0.107182
0.968544 0.709807 0.086389
0.960699 0.661542 0.074583
0.580852 0.920219 0.285384
0.615972 0.936688 0.241080
0.668018 0.937370 0.202159
0.753377 0.923815 0.168705
0.851153 0.907326 0.151567
0.933670 0.903033 0.153228
0.976390 0.895835 0.158413
0.992219 0.884878 0.150004
0.995108 0.864911 0.141415
0.633476 0.975887 0.240384
0.651151 0.976925 0.202146
0.680122 0.974230 0.169820
0.748648 0.961137 0.146424
0.843658 0.942947 0.134975
0.923164 0.935751 0.149651
0.978242 0.946569 0.171407
0.994153 0.946265 0.181121
0.999769 0.943549 0.179589
0.645166 0.982407 0.209019
0.655932 0.983256 0.170728
0.672209 0.982544 0.147350
0.722610 0.972833 0.136084
0.818740 0.952866 0.130212
0.908532 0.941884 0.143312
0.976602 0.958364 0.166210
0.996861 0.960559 0.182658
0.999940 0.958076 0.186298
0.000012 0.005809 0.427837
0.028073 0.006053 0.401658
0.069048 0.007370 0.360370
0.138011 0.010731 0.300580
0.276789 0.025043 0.235916
0.522961 0.081587 0.190349
0.755251 0.146579 0.152540
0.839435 0.165635 0.117924
0.852070 0.162061 0.089481
0.000173 0.047653 0.420790
0.024192 0.043565 0.411114
0.064429 0.039467 0.371963
0.140608 0.035764 0.302837
0.301452 0.044380 0.224657
0.565378 0.098192 0.167258
0.780656 0.152074 0.120713
0.842392 0.166067 0.090622
0.859446 0.154210 0.060156
0.002245 0.128673 0.422796
0.023873 0.122704 0.420171
0.062706 0.111670 0.384081
0.145218 0.098531 0.308939
0.324718 0.098665 0.215727
0.596768 0.138695 0.142159
0.792517 0.178247 0.095337
0.848416 0.171122 0.063440
0.864491 0.153568 0.037683
0.024407 0.275797 0.452930
0.052535 0.280274 0.447667
0.101075 0.269383 0.411518
0.196563 0.248429 0.337487
0.384330 0.240803 0.232442
0.640777 0.262013 0.134638
0.815800 0.267704 0.074959
0.856579 0.232200 0.044617
0.863863 0.191651 0.025056
0.133475 0.505672 0.510605
0.182016 0.530682 0.492975
0.249795 0.532611 0.450263
0.359701 0.511717 0.381911
0.531194 0.491527 0.287914
0.737977 0.485608 0.174032
0.875211 0.465014 0.087276
0.897893 0.408761 0.047309
0.886507 0.342344 0.026832
0.346717 0.771764 0.539020
0.404080 0.799158 0.496945
0.470933 0.806008 0.441184
0.573190 0.787674 0.374557
0.709819 0.759527 0.306002
0.850262 0.734651 0.227748
0.939757 0.707424 0.145740
0.957077 0.659497 0.097543
0.945094 0.597109 0.072469
0.518705 0.937582 0.502125
0.555213 0.948700 0.442741
0.601711 0.949371 0.377092
0.682527 0.937088 0.307551
0.798258 0.913632 0.253141
0.907152 0.897485 0.219462
0.967107 0.880037 0.192815
0.988798 0.858790 0.161170
0.990832 0.823539 0.134756
0.576813 0.982628 0.444130
0.603270 0.982240 0.375363
0.633546 0.981097 0.306061
0.696248 0.971894 0.244802
0.801319 0.952743 0.202422
0.901049 0.938638 0.191314
0.969607 0.943860 0.195730
0.992102 0.940291 0.193936
0.999227 0.932321 0.182019
0.598933 0.986944 0.389516
0.621638 0.986682 0.307983
0.644245 0.986138 0.241857
0.687835 0.979662 0.197617
0.781804 0.961194 0.170601
0.884477 0.945284 0.165257
0.964321 0.957055 0.177125
0.993358 0.959464 0.191540
0.999682 0.957925 0.191837
0.000054 0.036633 0.584868
0.019694 0.033291 0.569144
0.058123 0.041543 0.544007
0.110780 0.052268 0.508425
0.233723 0.081092 0.468182
0.488780 0.150470 0.439887
0.722813 0.221843 0.415935
0.802156 0.232006 0.369806
0.816151 0.224792 0.309957
0.000117 0.082343 0.595277
0.018790 0.080103 0.600249
0.046761 0.073405 0.580527
0.108660 0.077701 0.532234
0.244812 0.096344 0.470555
0.512168 0.158377 0.414893
0.739753 0.219025 0.366100
0.807842 0.225982 0.309471
0.822142 0.214640 0.252391
0.001323 0.174675 0.624410
0.015799 0.165797 0.636277
0.045345 0.152541 0.617067
0.101802 0.131749 0.556865
0.253883 0.134631 0.467862
0.526450 0.176806 0.380311
0.751336 0.221366 0.309584
0.815920 0.221032 0.250361
0.828508 0.207696 0.197011
0.016953 0.333777 0.682764
0.029929 0.326058 0.690074
0.058485 0.305389 0.667102
0.124981 0.272984 0.597037
0.283573 0.248250 0.482870
0.552843 0.259390 0.357027
0.771142 0.275113 0.262647
0.830840 0.252978 0.197612
0.858009 0.204943 0.124775
0.099248 0.562268 0.748770
0.119640 0.566341 0.745331
0.152189 0.551611 0.716720
0.225813 0.514854 0.647530
0.383105 0.473145 0.533264
0.626810 0.452855 0.385879
0.824869 0.433539 0.248851
0.876329 0.385110 0.165238
0.885880 0.317192 0.093549
0.245424 0.810720 0.781564
0.284007 0.820190 0.756253
0.329174 0.813587 0.713002
0.410606 0.785835 0.643765
0.554121 0.744175 0.552246
0.744046 0.703656 0.433782
0.896164 0.667905 0.293834
0.944419 0.612973 0.186032
0.935855 0.542072 0.116432
0.379760 0.954898 0.757896
0.420659 0.958796 0.711183
0.467846 0.955856 0.650857
0.543892 0.945177 0.573725
0.676238 0.919274 0.491892
0.827516 0.886654 0.419525
0.937691 0.859964 0.338124
0.981321 0.824740 0.249816
0.986557 0.772986 0.171072
0.437754 0.990583 0.714332
0.479863 0.989136 0.649106
0.522958 0.988826 0.573364
0.589428 0.984063 0.489984
0.708082 0.969178 0.411063
0.845788 0.949530 0.356160
0.947202 0.943602 0.320449
0.986596 0.931207 0.278018
0.998490 0.913570 0.224367
0.477864 0.994028 0.661204
0.516693 0.993916 0.578539
0.557849 0.993239 0.491057
0.610854 0.989513 0.408616
0.709004 0.976562 0.338279
0.835493 0.958443 0.289620
0.931043 0.951553 0.271339
0.985975 0.960307 0.252452
0.999388 0.958869 0.225126
0.000245 0.113399 0.738360
0.015241 0.111699 0.735451
0.042310 0.114291 0.732676
0.082211 0.125716 0.730661
0.190285 0.172142 0.721699
0.411663 0.244266 0.731119
0.644148 0.290060 0.751570
0.721435 0.304413 0.709425
0.750132 0.295044 0.646247
0.000221 0.151720 0.752727
0.013623 0.154523 0.763567
0.037473 0.152589 0.763418
0.078784 0.153749 0.753457
0.173199 0.171492 0.739683
0.408022 0.242740 0.715500
0.644886 0.292940 0.694531
0.734887 0.298605 0.650895
0.760143 0.286619 0.590576
0.001781 0.239491 0.787347
0.010459 0.229817 0.799260
0.033100 0.217444 0.795024
0.074047 0.201229 0.774172
0.167698 0.196628 0.739700
0.398422 0.243126 0.687385
0.648436 0.284336 0.641979
0.750210 0.288799 0.582697
0.775474 0.275059 0.511730
0.020845 0.396496 0.848346
0.023478 0.376138 0.854020
0.037398 0.347002 0.843720
0.077222 0.312085 0.809268
0.172411 0.281080 0.749802
0.398419 0.288977 0.664529
0.662976 0.304825 0.587623
0.772287 0.299250 0.505012
0.797224 0.273971 0.417501
0.083322 0.618451 0.914619
0.085259 0.598462 0.914164
0.097348 0.562614 0.894787
0.127701 0.514929 0.859461
0.227389 0.465646 0.786270
0.442557 0.436694 0.676132
0.704165 0.423739 0.552845
0.824965 0.388609 0.436786
0.842490 0.337009 0.332210
0.174702 0.845707 0.937995
0.188949 0.832223 0.929445
0.206648 0.805716 0.910470
0.248509 0.764587 0.872525
0.351263 0.715201 0.809107
0.549018 0.668584 0.707564
0.780115 0.631886 0.565995
0.901836 0.579562 0.418799
0.920398 0.507813 0.290115
0.224700 0.968524 0.929178
0.254621 0.962851 0.909309
0.290786 0.951411 0.880227
0.348398 0.936519 0.837673
0.470813 0.909392 0.774115
0.659258 0.871767 0.693185
0.847136 0.834790 0.589219
0.952574 0.788916 0.458390
0.979509 0.725588 0.322435
0.254171 0.995109 0.909881
0.291589 0.992433 0.879660
0.333427 0.991853 0.839644
0.398908 0.989246 0.783883
0.525165 0.980470 0.709247
0.709058 0.962245 0.628473
0.874861 0.941801 0.558712
0.966651 0.921072 0.479347
0.997130 0.891153 0.378784
0.289439 0.997373 0.882234
0.324811 0.998059 0.844325
0.373705 0.998395 0.790826
0.441070 0.997659 0.720950
0.553376 0.992861 0.636287
0.718723 0.980475 0.548138
0.872201 0.967652 0.484159
0.965322 0.967166 0.435886
0.999453 0.965479 0.373336
0.000555 0.198488 0.840304
0.010478 0.197508 0.842838
0.035088 0.199810 0.848056
0.073336 0.208953 0.858587
0.152041 0.240460 0.869017
0.327344 0.297549 0.900679
0.540828 0.346983 0.931578
0.622781 0.357961 0.928458
0.648655 0.352745 0.902584
0.000344 0.221204 0.849225
0.009772 0.222266 0.854074
0.029450 0.220932 0.858427
0.066261 0.223868 0.864199
0.139681 0.246013 0.868839
0.301153 0.293892 0.887098
0.524944 0.342150 0.908795
0.628867 0.356517 0.903665
0.656033 0.350497 0.884661
0.001974 0.286637 0.873274
0.007661 0.271532 0.874137
0.025008 0.259549 0.870930
0.058325 0.249324 0.869674
0.120081 0.252752 0.872213
0.276977 0.291885 0.869596
0.508964 0.337196 0.881194
0.639129 0.351023 0.873686
0.674731 0.343534 0.844855
0.022524 0.423837 0.920051
0.019888 0.388556 0.914140
0.026590 0.354701 0.904299
0.051528 0.321921 0.894629
0.110334 0.302063 0.884157
0.262285 0.317490 0.861220
0.500609 0.347352 0.854768
0.657543 0.353817 0.828963
0.710623 0.335976 0.774570
0.086704 0.630960 0.971528
0.076980 0.585986 0.963557
0.071777 0.537332 0.950813
0.084119 0.488045 0.934822
0.137657 0.448218 0.910102
0.272032 0.428352 0.876148
0.513456 0.426746 0.834728
0.702053 0.410092 0.773744
0.760578 0.372802 0.679317
0.154685 0.844850 0.987294
0.154750 0.808572 0.982982
0.153700 0.764999 0.974970
0.162241 0.717581 0.964458
0.212454 0.669152 0.942693
0.342530 0.628985 0.901597
0.575048 0.600491 0.831107
0.777923 0.560349 0.729148
0.853017 0.495674 0.607543
0.162028 0.968554 0.989244
0.176332 0.952215 0.983024
0.191611 0.930820 0.973952
0.216325 0.906904 0.963219
0.288555 0.874212 0.940298
0.438279 0.836570 0.898566
0.659889 0.801100 0.829211
0.854529 0.755185 0.720901
0.941054 0.689475 0.587697
0.164657 0.996433 0.981912
0.180979 0.991701 0.973775
0.198376 0.989066 0.964415
0.233031 0.984039 0.947228
0.320613 0.974179 0.914652
0.491509 0.957589 0.862533
0.712738 0.935713 0.798578
0.893788 0.908136 0.720623
0.982340 0.871805 0.620611
0.176144 0.998839 0.972265
0.189359 0.999345 0.965105
0.212439 0.999531 0.950691
0.254355 0.999350 0.923954
0.342844 0.998401 0.878743
0.512108 0.994672 0.810497
0.729323 0.986621 0.737676
0.904834 0.980068 0.684998
0.995956 0.978123 0.629180
0.000535 0.233221 0.877743
0.005889 0.231497 0.880312
0.026647 0.231249 0.884236
0.064131 0.235268 0.892247
0.137127 0.261259 0.895743
0.280579 0.306813 0.926281
0.488718 0.355070 0.965289
0.581052 0.372674 0.979269
0.595746 0.374485 0.977208
0.000195 0.243097 0.880666
0.006698 0.241984 0.880018
0.021332 0.239830 0.882797
0.054783 0.241813 0.888452
0.123025 0.263090 0.890124
0.250248 0.303404 0.916494
0.461780 0.353362 0.956111
0.576057 0.375568 0.973475
0.597580 0.376056 0.975679
0.000979 0.284937 0.893792
0.005391 0.269208 0.888821
0.014231 0.256090 0.888412
0.042292 0.249814 0.891156
0.095239 0.256786 0.901706
0.223724 0.299002 0.908818
0.434186 0.348719 0.948133
0.572011 0.375219 0.968204
0.602928 0.376784 0.968971
0.015109 0.397428 0.929838
0.012990 0.357136 0.917310
0.013987 0.321271 0.909414
0.033780 0.295034 0.904894
0.082090 0.286340 0.907992
0.198322 0.312944 0.905706
0.398634 0.352639 0.938808
0.565087 0.378135 0.957364
0.616589 0.377384 0.951293
0.073558 0.590060 0.976292
0.060341 0.532498 0.961888
0.045628 0.477009 0.953031
0.049286 0.428751 0.943940
0.099337 0.401201 0.924465
0.183004 0.394628 0.923965
0.364848 0.407629 0.937378
0.564297 0.414963 0.941419
0.650765 0.398468 0.920443
0.148371 0.807469 0.994838
0.139616 0.756366 0.988985
0.125968 0.701677 0.984217
0.121984 0.645755 0.976775
0.146717 0.597113 0.968174
0.215114 0.565695 0.959875
0.376995 0.551798 0.950511
0.599085 0.533269 0.927358
0.729876 0.491648 0.884105
0.160599 0.949442 0.998047
0.168055 0.924924 0.994681
0.170364 0.895283 0.993912
0.177500 0.856589 0.991652
0.208550 0.810368 0.986628
0.283558 0.767846 0.976869
0.441468 0.740683 0.957290
0.671941 0.713931 0.916414
0.842232 0.668512 0.858713
0.151889 0.994805 0.998469
0.160885 0.987828 0.994788
0.167267 0.981251 0.993954
0.180277 0.969001 0.991422
0.220029 0.948422 0.984893
0.315808 0.922122 0.970656
0.495110 0.900392 0.946065
0.738226 0.884879 0.909175
0.922412 0.861046 0.860210
0.153737 0.999524 0.994163
0.158073 0.999847 0.993753
0.164584 0.999873 0.991925
0.176846 0.999610 0.987070
0.213080 0.999176 0.976159
0.314429 0.998483 0.953911
0.510777 0.996189 0.921515
0.766145 0.992767 0.893979
0.972235 0.990997 0.857993
0.000436 0.237624 0.884796
0.003478 0.235799 0.887224
0.020243 0.234965 0.890343
0.055051 0.237331 0.896356
0.123120 0.260414 0.893924
0.235705 0.298516 0.919278
0.444112 0.348872 0.961056
0.568239 0.373639 0.982932
0.587892 0.377688 0.985631
0.000179 0.242960 0.886015
0.001520 0.239083 0.888274
0.010969 0.236980 0.891341
0.039900 0.238079 0.896459
0.094722 0.249970 0.907328
0.223897 0.296294 0.915539
0.434293 0.348163 0.959337
0.566287 0.375205 0.983087
0.588364 0.379710 0.986089
0.000366 0.269724 0.893524
0.000945 0.253531 0.892170
0.005630 0.244217 0.893230
0.027331 0.241943 0.896770
0.077061 0.249384 0.906782
0.199493 0.292345 0.908323
0.400809 0.343178 0.952435
0.555149 0.375526 0.981358
0.588694 0.382053 0.986371
0.006698 0.357842 0.922341
0.004390 0.315092 0.911407
0.005356 0.283331 0.904469
0.020098 0.266426 0.902508
0.063127 0.264227 0.907381
0.167838 0.295815 0.901518
0.340800 0.337992 0.940429
0.526461 0.375028 0.976582
0.589067 0.385163 0.986553
0.052222 0.528851 0.968126
0.035754 0.468157 0.955740
0.024415 0.411301 0.942945
0.026716 0.367162 0.932844
0.057966 0.341847 0.929492
0.142053 0.347663 0.913499
0.276645 0.367977 0.938106
0.481873 0.394263 0.973278
0.593756 0.399164 0.987888
0.137793 0.748436 0.994080
0.119498 0.694394 0.988651
0.101725 0.632395 0.980334
0.090462 0.568123 0.969345
0.104090 0.514999 0.959057
0.146640 0.484350 0.954539
0.246568 0.479027 0.962363
0.453148 0.483846 0.981881
0.626876 0.469644 0.993198
0.168078 0.919017 0.998853
0.166772 0.892843 0.998791
0.164797 0.852271 0.997751
0.161884 0.794754 0.995257
0.171438 0.728974 0.991636
0.203269 0.673427 0.988642
0.286655 0.650393 0.989275
0.493802 0.653206 0.994416
0.713974 0.629082 0.998182
0.156813 0.986534 0.999530
0.161151 0.981341 0.999846
0.167486 0.969466 0.999832
0.176899 0.945336 0.999430
0.198449 0.906423 0.998698
0.241912 0.859671 0.997958
0.341043 0.834117 0.998012
0.576200 0.845511 0.999043
0.824154 0.824072 0.999435
0.152551 0.999809 0.999809
0.155922 0.999992 0.999992
0.159779 0.999932 0.999932
0.164602 0.999642 0.999643
0.177536 0.999203 0.999210
0.216635 0.998575 0.998860
0.309763 0.996436 0.998905
0.545897 0.995365 0.999604
0.923883 0.999989 0.999989
