lut/BlueArchitecture.cube
TITLE "Blue Architecture"
# Created by Photon 3D ColorGrading
DOMAIN_MIN 0 0 0
DOMAIN_MAX 1 1 1
LUT_3D_SIZE 33
0.000017 0.000017 0.091356
0.018384 0.000303 0.078831
0.037095 0.000438 0.066414
0.056467 0.000341 0.054288
0.076785 0.000173 0.042889
0.098029 0.000079 0.032673
0.119811 0.000041 0.023904
0.141644 0.000028 0.016724
0.163100 0.000026 0.011149
0.183915 0.000030 0.007063
0.204064 0.000039 0.004245
0.223786 0.000057 0.002423
0.243607 0.000096 0.001319
0.264358 0.000190 0.000696
0.287158 0.000418 0.000371
0.313262 0.000941 0.000217
0.343886 0.002049 0.000151
0.380119 0.004221 0.000122
0.422775 0.008151 0.000103
0.472060 0.014664 0.000083
0.527171 0.024471 0.000060
0.586014 0.037786 0.000040
0.645297 0.054019 0.000030
0.701110 0.071773 0.000036
0.749856 0.089209 0.000059
0.789151 0.104599 0.000088
0.818297 0.116821 0.000111
0.838177 0.125565 0.000122
0.850684 0.131211 0.000123
0.858016 0.134511 0.000123
0.862130 0.136277 0.000129
0.864488 0.137188 0.000146
0.866088 0.137734 0.000177
0.000468 0.011607 0.079596
0.016474 0.010156 0.068340
0.033972 0.009651 0.058089
0.052143 0.008899 0.047858
0.071373 0.008117 0.038044
0.091756 0.007518 0.029121
0.112939 0.007064 0.021329
0.134467 0.006715 0.014833
0.155915 0.006448 0.009700
0.177233 0.006616 0.006245
0.198192 0.007066 0.004178
0.218466 0.006947 0.002419
0.238907 0.006867 0.001338
0.260282 0.006853 0.000719
0.283664 0.006980 0.000391
0.310286 0.007406 0.000234
0.341360 0.008424 0.000165
0.377982 0.010509 0.000133
0.420978 0.014346 0.000112
0.470560 0.020738 0.000089
0.525920 0.030366 0.000062
0.584964 0.043414 0.000036
0.644391 0.059273 0.000019
0.700289 0.076546 0.000017
0.749072 0.093420 0.000031
0.788379 0.108217 0.000052
0.817540 0.119871 0.000069
0.837454 0.128118 0.000076
0.850019 0.133358 0.000077
0.857427 0.136347 0.000080
0.861624 0.137880 0.000092
0.864065 0.138611 0.000117
0.865744 0.139005 0.000156
0.000938 0.023194 0.067924
0.015733 0.021187 0.058840
0.031110 0.019133 0.049768
0.048052 0.017681 0.041286
0.066186 0.016271 0.032971
0.085722 0.015191 0.025326
0.106306 0.014347 0.018520
0.128242 0.014644 0.013688
0.150350 0.015187 0.010105
0.171536 0.014796 0.006580
0.192482 0.014507 0.004071
0.213291 0.014293 0.002396
0.234343 0.014144 0.001352
0.256342 0.014078 0.000746
0.280314 0.014167 0.000420
0.307466 0.014568 0.000262
0.339001 0.015575 0.000191
0.376023 0.017659 0.000157
0.419363 0.021491 0.000133
0.469234 0.027846 0.000107
0.524821 0.037360 0.000075
0.584017 0.050174 0.000043
0.643518 0.065650 0.000018
0.699420 0.082393 0.000007
0.748161 0.098628 0.000013
0.787417 0.112740 0.000026
0.816549 0.123729 0.000036
0.836474 0.131384 0.000041
0.849089 0.136135 0.000043
0.856575 0.138738 0.000050
0.860864 0.139975 0.000068
0.863400 0.140471 0.000101
0.865171 0.140661 0.000149
0.001473 0.034831 0.056450
0.015194 0.032323 0.049389
0.028954 0.029245 0.041655
0.044361 0.026753 0.034398
0.061498 0.024806 0.027527
0.082161 0.025496 0.023333
0.102807 0.025224 0.018491
0.123493 0.024293 0.013481
0.144644 0.023593 0.009365
0.165941 0.023088 0.006188
0.187214 0.022740 0.003890
0.208507 0.022513 0.002335
0.230140 0.022387 0.001353
0.252755 0.022375 0.000776
0.277330 0.022547 0.000462
0.305038 0.023062 0.000307
0.337064 0.024209 0.000235
0.374506 0.026455 0.000198
0.418192 0.030444 0.000170
0.468324 0.036907 0.000139
0.524073 0.046420 0.000102
0.583320 0.059059 0.000062
0.642762 0.074147 0.000030
0.698519 0.090292 0.000011
0.747074 0.105765 0.000007
0.786153 0.119032 0.000013
0.815161 0.129184 0.000018
0.835035 0.136077 0.000020
0.847670 0.140180 0.000023
0.855227 0.142258 0.000033
0.859614 0.143077 0.000058
0.862259 0.143229 0.000100
0.864143 0.143115 0.000157
0.002209 0.046662 0.045361
0.014866 0.043571 0.039896
0.027980 0.040339 0.034091
0.044907 0.039902 0.030872
0.061515 0.038027 0.025915
0.079455 0.036313 0.020907
0.098694 0.034897 0.016177
0.118962 0.033801 0.011962
0.139915 0.033006 0.008431
0.161245 0.032478 0.005659
0.182764 0.032171 0.003626
0.204481 0.032045 0.002235
0.226661 0.032073 0.001347
0.249895 0.032264 0.000821
0.275106 0.032691 0.000532
0.303420 0.033513 0.000385
0.335985 0.035015 0.000312
0.373882 0.037647 0.000270
0.417920 0.042018 0.000234
0.468277 0.048794 0.000194
0.524099 0.058464 0.000148
0.583249 0.071017 0.000100
0.642434 0.085720 0.000059
0.697815 0.101183 0.000032
0.745949 0.115742 0.000020
0.784640 0.127967 0.000018
0.813354 0.137060 0.000018
0.833056 0.142971 0.000017
0.845634 0.146221 0.000021
0.853221 0.147588 0.000037
0.857692 0.147819 0.000068
0.860446 0.147474 0.000118
0.862446 0.146908 0.000185
0.003584 0.059131 0.035076
0.015395 0.055572 0.030900
0.028999 0.053161 0.027690
0.044106 0.051281 0.024771
0.060068 0.049178 0.021139
0.077430 0.047327 0.017356
0.096131 0.045796 0.013641
0.115977 0.044636 0.010240
0.136683 0.043851 0.007334
0.157970 0.043410 0.005020
0.179658 0.043268 0.003304
0.201733 0.043382 0.002121
0.224423 0.043722 0.001363
0.248269 0.044299 0.000912
0.274141 0.045187 0.000661
0.303120 0.046550 0.000527
0.336312 0.048665 0.000452
0.374748 0.051955 0.000399
0.419184 0.056975 0.000347
0.469749 0.064305 0.000291
0.525545 0.074317 0.000230
0.584415 0.086889 0.000169
0.643083 0.101219 0.000118
0.697782 0.115923 0.000083
0.745171 0.129413 0.000063
0.783168 0.140391 0.000054
0.811328 0.148197 0.000048
0.830656 0.152893 0.000044
0.843032 0.155065 0.000048
0.850552 0.155509 0.000066
0.855044 0.154955 0.000104
0.857867 0.153926 0.000162
0.859953 0.152728 0.000238
0.006231 0.072873 0.026079
0.017536 0.069071 0.022987
0.031384 0.067061 0.021692
0.045303 0.064334 0.019219
0.060647 0.061973 0.016586
0.077474 0.060003 0.013822
0.095694 0.058441 0.011043
0.115138 0.057322 0.008435
0.135571 0.056659 0.006170
0.156763 0.056428 0.004346
0.178556 0.056589 0.002989
0.200941 0.057098 0.002056
0.224124 0.057929 0.001464
0.248607 0.059095 0.001116
0.275210 0.060676 0.000920
0.304952 0.062836 0.000806
0.338875 0.065838 0.000724
0.377937 0.070068 0.000647
0.422820 0.076013 0.000564
0.473577 0.084139 0.000475
0.529243 0.094679 0.000386
0.587628 0.107378 0.000304
0.645482 0.121353 0.000238
0.699131 0.135230 0.000193
0.745379 0.147520 0.000166
0.782298 0.157073 0.000147
0.809560 0.163393 0.000134
0.828229 0.166666 0.000124
0.840180 0.167551 0.000124
0.847465 0.166866 0.000142
0.851851 0.165324 0.000181
0.854643 0.163409 0.000241
0.856731 0.161378 0.000322
0.010759 0.088534 0.018630
0.022758 0.085432 0.017340
0.035311 0.082360 0.015921
0.048897 0.079524 0.014313
0.063827 0.077046 0.012513
0.080222 0.075020 0.010578
0.098034 0.073498 0.008603
0.117117 0.072514 0.006726
0.137286 0.072082 0.005081
0.158361 0.072184 0.003759
0.180228 0.072789 0.002792
0.202898 0.073856 0.002150
0.226576 0.075362 0.001767
0.251734 0.077325 0.001558
0.279145 0.079831 0.001440
0.309761 0.083040 0.001351
0.344539 0.087195 0.001253
0.384341 0.092633 0.001131
0.429746 0.099751 0.000988
0.480699 0.108887 0.000839
0.536143 0.120114 0.000697
0.593836 0.133026 0.000577
0.650559 0.146658 0.000486
0.702759 0.159656 0.000426
0.747428 0.170647 0.000387
0.782835 0.178653 0.000358
0.808801 0.183347 0.000331
0.826466 0.185047 0.000308
0.837705 0.184484 0.000295
0.844519 0.182497 0.000302
0.848605 0.179782 0.000332
0.851199 0.176788 0.000385
0.853135 0.173726 0.000461
0.017878 0.106849 0.012836
0.029732 0.103616 0.012104
0.042136 0.100504 0.011274
0.055535 0.097638 0.010290
0.070224 0.095150 0.009140
0.086329 0.093157 0.007870
0.103833 0.091747 0.006560
0.122631 0.090979 0.005319
0.142581 0.090872 0.004251
0.163562 0.091421 0.003429
0.185513 0.092601 0.002880
0.208481 0.094378 0.002577
0.232680 0.096731 0.002457
0.258568 0.099685 0.002438
0.286874 0.103327 0.002433
0.318478 0.107810 0.002383
0.354235 0.113343 0.002256
0.394884 0.120195 0.002057
0.440872 0.128661 0.001810
0.492008 0.138933 0.001549
0.547120 0.150919 0.001310
0.603909 0.164078 0.001120
0.659193 0.177378 0.000986
0.709567 0.189492 0.000902
0.752242 0.199162 0.000847
0.785717 0.205582 0.000798
0.809991 0.208600 0.000747
0.826294 0.208659 0.000694
0.836506 0.206560 0.000650
0.842575 0.203155 0.000625
0.846118 0.199128 0.000626
0.848294 0.194893 0.000652
0.849870 0.190627 0.000700
0.028439 0.128699 0.008715
0.040248 0.125486 0.008338
0.052602 0.122401 0.007894
0.065927 0.119574 0.007338
0.080505 0.117146 0.006664
0.096457 0.115259 0.005907
0.113781 0.114030 0.005138
0.132400 0.113540 0.004441
0.152222 0.113833 0.003902
0.173181 0.114918 0.003577
0.195273 0.116778 0.003481
0.218590 0.119388 0.003583
0.243366 0.122732 0.003807
0.270053 0.126836 0.004055
0.299340 0.131784 0.004223
0.332033 0.137714 0.004237
0.368877 0.144793 0.004073
0.410473 0.153216 0.003756
0.457109 0.163164 0.003341
0.508424 0.174672 0.002900
0.563089 0.187470 0.002499
0.618733 0.200870 0.002185
0.672240 0.213791 0.001972
0.720399 0.224968 0.001840
0.760688 0.233294 0.001750
0.791859 0.238139 0.001664
0.814098 0.239507 0.001565
0.828726 0.237946 0.001455
0.837624 0.234306 0.001348
0.842683 0.229443 0.001256
0.845434 0.224025 0.001190
0.846954 0.218441 0.001151
0.847936 0.212847 0.001137
0.043353 0.155166 0.006256
0.055141 0.152018 0.006088
0.067477 0.149000 0.005879
0.080788 0.146251 0.005604
0.095344 0.143927 0.005265
0.111260 0.142187 0.004897
0.128534 0.141176 0.004561
0.147110 0.141005 0.004334
0.166935 0.141742 0.004290
0.187991 0.143414 0.004475
0.210329 0.146021 0.004892
0.234084 0.149546 0.005492
0.259516 0.153974 0.006175
0.287071 0.159328 0.006804
0.317397 0.165683 0.007236
0.351214 0.173146 0.007364
0.389137 0.181825 0.007163
0.431605 0.191825 0.006680
0.478747 0.203213 0.006015
0.530060 0.215888 0.005294
0.584097 0.229437 0.004635
0.638418 0.243051 0.004120
0.689949 0.255606 0.003773
0.735664 0.265898 0.003555
0.773316 0.272964 0.003400
0.801934 0.276347 0.003247
0.821907 0.276190 0.003065
0.834646 0.273125 0.002856
0.842030 0.268028 0.002635
0.845877 0.261751 0.002424
0.847636 0.254939 0.002235
0.848295 0.247969 0.002074
0.848476 0.240988 0.001940
0.063475 0.187197 0.005483
0.075199 0.184127 0.005426
0.087493 0.181189 0.005352
0.100793 0.178528 0.005254
0.115372 0.176313 0.005146
0.131337 0.174726 0.005070
0.148684 0.173938 0.005090
0.167364 0.174088 0.005284
0.187348 0.175272 0.005724
0.208655 0.177540 0.006454
0.231377 0.180909 0.007467
0.255688 0.185369 0.008689
0.281864 0.190907 0.009979
0.310345 0.197539 0.011143
0.341740 0.205322 0.011968
0.376687 0.214327 0.012297
0.415671 0.224594 0.012086
0.458965 0.236133 0.011404
0.506511 0.248887 0.010407
0.557629 0.262616 0.009291
0.610743 0.276778 0.008252
0.663383 0.290481 0.007426
0.712578 0.302600 0.006855
0.755535 0.312020 0.006484
0.790309 0.317924 0.006209
0.816212 0.320005 0.005936
0.833812 0.318517 0.005617
0.844587 0.314143 0.005247
0.850383 0.307759 0.004848
0.852937 0.300193 0.004446
0.853602 0.292069 0.004060
0.853283 0.283757 0.003701
0.852536 0.275414 0.003370
0.089498 0.225548 0.006520
0.101067 0.222544 0.006517
0.113243 0.219673 0.006516
0.126493 0.217082 0.006527
0.141100 0.214954 0.006582
0.157169 0.213492 0.006732
0.174691 0.212894 0.007054
0.193615 0.213328 0.007637
0.213920 0.214918 0.008566
0.235644 0.217740 0.009889
0.258903 0.221825 0.011591
0.283887 0.227172 0.013571
0.310883 0.233769 0.015635
0.340313 0.241617 0.017511
0.372738 0.250750 0.018895
0.408711 0.261196 0.019549
0.448583 0.272921 0.019394
0.492464 0.285836 0.018514
0.540109 0.299765 0.017121
0.590668 0.314347 0.015501
0.642456 0.328933 0.013947
0.693012 0.342584 0.012674
0.739521 0.354204 0.011756
0.779468 0.362784 0.011125
0.811229 0.367654 0.010640
0.834382 0.368639 0.010169
0.849648 0.366067 0.009640
0.858534 0.360640 0.009037
0.862822 0.353205 0.008382
0.864146 0.344553 0.007706
0.863756 0.335281 0.007038
0.862475 0.325758 0.006392
0.860801 0.316164 0.005775
0.121830 0.270643 0.009626
0.133127 0.267686 0.009645
0.145087 0.264856 0.009680
0.158218 0.262305 0.009760
0.172828 0.260225 0.009931
0.189026 0.258837 0.010262
0.206798 0.258368 0.010846
0.226083 0.259014 0.011795
0.246851 0.260928 0.013212
0.269141 0.264209 0.015161
0.293068 0.268904 0.017623
0.318822 0.275020 0.020472
0.346675 0.282541 0.023457
0.377017 0.291452 0.026215
0.410349 0.301758 0.028332
0.447127 0.313438 0.029470
0.487576 0.326385 0.029488
0.531644 0.340414 0.028469
0.578916 0.355241 0.026672
0.628389 0.370399 0.024479
0.678311 0.385167 0.022294
0.726285 0.398587 0.020429
0.769714 0.409625 0.019008
0.806406 0.417396 0.017968
0.835074 0.421370 0.017138
0.855540 0.421480 0.016357
0.868633 0.418100 0.015527
0.875841 0.411913 0.014609
0.878847 0.403715 0.013620
0.879155 0.394240 0.012592
0.877899 0.384056 0.011557
0.875820 0.373532 0.010537
0.873368 0.362884 0.009548
0.160491 0.322470 0.015144
0.171402 0.319545 0.015166
0.183042 0.316739 0.015218
0.195975 0.314200 0.015341
0.210543 0.312127 0.015595
0.226869 0.310759 0.016067
0.244930 0.310344 0.016872
0.264652 0.311109 0.018146
0.285984 0.313233 0.020021
0.308942 0.316836 0.022578
0.333620 0.321982 0.025808
0.360183 0.328683 0.029563
0.388865 0.336916 0.033541
0.420002 0.346650 0.037293
0.454015 0.357858 0.040289
0.491255 0.370467 0.042077
0.531819 0.384302 0.042437
0.575509 0.399091 0.041419
0.621756 0.414456 0.039310
0.669448 0.429846 0.036565
0.716823 0.444494 0.033692
0.761627 0.457466 0.031105
0.801556 0.467815 0.029002
0.834781 0.474795 0.027358
0.860337 0.478009 0.026013
0.878255 0.477468 0.024788
0.889428 0.473559 0.023552
0.895272 0.466918 0.022244
0.897331 0.458267 0.020854
0.896957 0.448273 0.019407
0.895152 0.437465 0.017940
0.892577 0.426217 0.016478
0.889636 0.414782 0.015045
0.205037 0.380509 0.023369
0.215464 0.377627 0.023385
0.226694 0.374849 0.023439
0.239352 0.372316 0.023584
0.253823 0.370227 0.023890
0.270249 0.368833 0.024459
0.288601 0.368403 0.025425
0.308785 0.369188 0.026951
0.330719 0.371391 0.029196
0.354380 0.375152 0.032266
0.379817 0.380550 0.036167
0.407146 0.387598 0.040745
0.436540 0.396268 0.045667
0.468255 0.406511 0.050414
0.502610 0.418266 0.054361
0.539836 0.431413 0.056947
0.579904 0.445714 0.057857
0.622482 0.460820 0.057077
0.666887 0.476277 0.054871
0.711960 0.491479 0.051716
0.756022 0.505653 0.048184
0.797063 0.517927 0.044781
0.833123 0.527475 0.041820
0.862744 0.533684 0.039369
0.885239 0.536266 0.037338
0.900828 0.535286 0.035515
0.910327 0.531105 0.033842
0.915213 0.524305 0.032026
0.916714 0.515509 0.030190
0.916040 0.505310 0.028302
0.914073 0.494198 0.026371
0.911388 0.482545 0.024427
0.908340 0.470637 0.022507
0.254528 0.443732 0.034366
0.264399 0.440935 0.034368
0.275146 0.438221 0.034414
0.287461 0.435717 0.034559
0.301771 0.433617 0.034882
0.318242 0.432177 0.035492
0.336845 0.431679 0.036538
0.357459 0.432394 0.038201
0.379961 0.434544 0.040664
0.404275 0.438288 0.044063
0.430387 0.443712 0.048422
0.458338 0.450833 0.053606
0.488219 0.459615 0.059274
0.520180 0.469989 0.064884
0.554409 0.481863 0.069753
0.591000 0.495072 0.073239
0.629801 0.509319 0.074926
0.670383 0.524200 0.074690
0.712019 0.539212 0.072692
0.753612 0.553748 0.069349
0.793680 0.567082 0.065251
0.830532 0.578442 0.060984
0.862503 0.587108 0.057089
0.888499 0.592590 0.053723
0.908094 0.594676 0.050865
0.921577 0.593445 0.048380
0.929813 0.589228 0.046096
0.933987 0.582517 0.043853
0.935282 0.573854 0.041573
0.934701 0.563753 0.039221
0.932914 0.552648 0.036869
0.930548 0.540925 0.034397
0.927707 0.528874 0.032065
0.307550 0.510639 0.047815
0.316816 0.507998 0.047795
0.327025 0.505415 0.047819
0.338930 0.502994 0.047943
0.353006 0.500918 0.048244
0.369442 0.499438 0.048832
0.388207 0.498843 0.049861
0.409155 0.499412 0.051519
0.432112 0.501383 0.054007
0.456936 0.504925 0.057483
0.483531 0.510131 0.062004
0.511843 0.517017 0.067469
0.541852 0.525535 0.073573
0.573577 0.535594 0.079797
0.607052 0.547069 0.085456
0.642230 0.559755 0.089859
0.678871 0.573322 0.092473
0.716542 0.587354 0.093004
0.754588 0.601369 0.091463
0.792092 0.614818 0.088142
0.827773 0.627040 0.083683
0.860222 0.637355 0.078772
0.888144 0.645148 0.074014
0.910673 0.649990 0.069776
0.930913 0.652913 0.062827
0.947632 0.653336 0.054839
0.953540 0.648741 0.053386
0.955994 0.641796 0.051966
0.956056 0.632990 0.050469
0.954586 0.622786 0.048850
0.951514 0.611429 0.047793
0.948347 0.599600 0.046247
0.946181 0.587744 0.043359
0.362278 0.579319 0.062967
0.370902 0.576919 0.062920
0.380525 0.574547 0.062913
0.391952 0.572282 0.062997
0.405701 0.570282 0.063244
0.421984 0.568785 0.063754
0.440771 0.568072 0.064675
0.461885 0.568425 0.066193
0.485095 0.570085 0.068511
0.510177 0.573223 0.071808
0.536934 0.577931 0.076175
0.565196 0.584218 0.081561
0.594813 0.592021 0.087725
0.625658 0.601228 0.094206
0.657628 0.611695 0.100356
0.690588 0.623214 0.105450
0.724313 0.635486 0.108851
0.758477 0.648155 0.110109
0.792491 0.660765 0.109206
0.825650 0.672862 0.106266
0.856898 0.683850 0.101866
0.885060 0.693103 0.096731
0.922267 0.706544 0.078853
0.940640 0.710306 0.075765
0.953944 0.711160 0.073103
0.962649 0.709192 0.070869
0.967569 0.704671 0.068924
0.969660 0.697973 0.067083
0.969807 0.689511 0.065196
0.968715 0.679683 0.063179
0.966877 0.668858 0.061013
0.964617 0.657384 0.058724
0.962149 0.645597 0.056364
0.416553 0.647463 0.078788
0.424501 0.645380 0.078713
0.433484 0.643293 0.078671
0.444347 0.641245 0.078707
0.457642 0.639366 0.078882
0.473607 0.637864 0.079283
0.492208 0.637001 0.080038
0.513236 0.637045 0.081317
0.536394 0.638229 0.083314
0.561365 0.640720 0.086210
0.587840 0.644602 0.090120
0.615527 0.649881 0.095034
0.644159 0.656490 0.100770
0.673507 0.664328 0.106947
0.703415 0.673292 0.112954
0.733655 0.683155 0.118276
0.764132 0.693742 0.122138
0.794559 0.704721 0.124139
0.824530 0.715735 0.124052
0.853427 0.726347 0.121964
0.896435 0.745945 0.102877
0.920799 0.754030 0.099465
0.940491 0.759584 0.096182
0.955805 0.762675 0.092921
0.966817 0.763168 0.090002
0.974010 0.761135 0.087484
0.978123 0.756803 0.085253
0.979963 0.750483 0.083131
0.980261 0.742521 0.080957
0.979582 0.733256 0.078634
0.978315 0.723018 0.076132
0.976713 0.712131 0.073475
0.974943 0.700928 0.070724
0.467972 0.712413 0.094138
0.475200 0.710688 0.094036
0.483477 0.708923 0.093959
0.493665 0.707125 0.093945
0.506345 0.705379 0.094041
0.521773 0.703856 0.094312
0.539920 0.702785 0.094859
0.560547 0.702411 0.095816
0.583295 0.702952 0.097347
0.607762 0.704573 0.099608
0.633538 0.707361 0.102713
0.660251 0.711351 0.106653
0.687507 0.716442 0.111436
0.715082 0.722648 0.116654
0.742700 0.729827 0.122018
0.770204 0.737871 0.127012
0.797451 0.746585 0.131115
0.824265 0.755724 0.133856
0.855188 0.768599 0.130134
0.894962 0.788196 0.116480
0.917868 0.795963 0.116163
0.937831 0.802417 0.114434
0.954276 0.807059 0.111911
0.966969 0.809561 0.109142
0.976062 0.809795 0.106483
0.982019 0.807809 0.104057
0.985490 0.803785 0.101809
0.987152 0.797978 0.099599
0.987604 0.790674 0.097288
0.987297 0.782158 0.094786
0.986537 0.772720 0.092067
0.985518 0.762660 0.089162
0.984369 0.752295 0.086140
0.514189 0.771577 0.107749
0.520656 0.770212 0.107610
0.528161 0.768772 0.107487
0.537566 0.767225 0.107403
0.549469 0.765608 0.107395
0.564152 0.764052 0.107495
0.581599 0.762745 0.107764
0.601552 0.761880 0.108331
0.623635 0.761724 0.109225
0.647364 0.762402 0.110627
0.672252 0.764015 0.112647
0.697833 0.766600 0.115351
0.723695 0.770151 0.118727
0.749484 0.774624 0.122692
0.774922 0.779968 0.127066
0.799822 0.786096 0.131558
0.824079 0.792868 0.135774
0.856362 0.807519 0.130696
0.892391 0.825519 0.122136
0.913953 0.832348 0.125229
0.933436 0.838668 0.126610
0.950280 0.843962 0.126531
0.964070 0.847776 0.125409
0.974673 0.849797 0.123706
0.982266 0.849887 0.121785
0.987276 0.848069 0.119827
0.990261 0.844478 0.117854
0.991794 0.839323 0.115788
0.992369 0.832836 0.113535
0.992351 0.825256 0.111036
0.991986 0.816833 0.108278
0.991423 0.807836 0.105306
0.990759 0.798558 0.102201
0.553566 0.823184 0.118392
0.559261 0.822168 0.118181
0.565958 0.821019 0.118008
0.574503 0.819670 0.117885
0.585532 0.818228 0.117691
0.599334 0.816656 0.117579
0.615929 0.815120 0.117551
0.635083 0.813828 0.117631
0.656377 0.812967 0.117897
0.679288 0.812701 0.118446
0.703259 0.813149 0.119384
0.727742 0.814374 0.120824
0.752249 0.816396 0.122860
0.776384 0.819198 0.125552
0.799859 0.822742 0.128896
0.822503 0.826972 0.132784
0.848689 0.835999 0.132572
0.888796 0.858493 0.119636
0.908951 0.863490 0.125592
0.927600 0.868679 0.130361
0.944344 0.873623 0.133715
0.958762 0.877859 0.135623
0.970547 0.880961 0.136276
0.979616 0.882626 0.136013
0.986136 0.882696 0.135172
0.990480 0.881162 0.133982
0.993129 0.878122 0.132538
0.994573 0.873742 0.130844
0.995231 0.868210 0.128869
0.995413 0.861726 0.126589
0.995319 0.854502 0.124019
0.995072 0.846771 0.121216
0.994746 0.838794 0.118268
0.585503 0.866438 0.125500
0.590437 0.865685 0.125255
0.596333 0.864809 0.125001
0.604011 0.863705 0.124746
0.614094 0.862337 0.124484
0.626935 0.860731 0.124211
0.642596 0.858992 0.123922
0.660869 0.857273 0.123631
0.681334 0.855750 0.123370
0.703434 0.854585 0.123207
0.726551 0.853911 0.123240
0.750072 0.853817 0.123606
0.773445 0.854355 0.124474
0.796228 0.855544 0.126024
0.818116 0.857390 0.128412
0.843482 0.864547 0.127090
0.878746 0.882737 0.116726
0.902367 0.889918 0.119327
0.920226 0.893215 0.126343
0.936671 0.896912 0.132720
0.951409 0.900635 0.138008
0.964110 0.903965 0.141923
0.974516 0.906500 0.144429
0.982556 0.907931 0.145726
0.988372 0.908082 0.146111
0.992291 0.906917 0.145843
0.994730 0.904503 0.145093
0.996122 0.900970 0.143944
0.996833 0.896473 0.142432
0.997138 0.891178 0.140579
0.997211 0.885261 0.138422
0.997160 0.878919 0.136028
0.997042 0.872375 0.133489
0.613724 0.908601 0.123230
0.618031 0.908282 0.122736
0.623263 0.907834 0.122213
0.630224 0.907128 0.121658
0.639558 0.906088 0.121052
0.651678 0.904703 0.120372
0.666719 0.903033 0.119595
0.684527 0.901199 0.118704
0.704707 0.899360 0.117704
0.726686 0.897685 0.116637
0.749799 0.896327 0.115594
0.773375 0.895408 0.114732
0.796809 0.895025 0.114277
0.819626 0.895252 0.114513
0.841514 0.896149 0.115732
0.862330 0.897764 0.118165
0.882051 0.900120 0.121881
0.908594 0.910935 0.119803
0.927167 0.915105 0.125500
0.942089 0.917522 0.133217
0.955484 0.920221 0.140162
0.967075 0.922819 0.145841
0.976628 0.924928 0.150027
0.984066 0.926234 0.152785
0.989499 0.926544 0.154358
0.993200 0.925790 0.155030
0.995547 0.924016 0.155026
0.996927 0.921328 0.154508
0.997679 0.917857 0.153572
0.998055 0.913743 0.152285
0.998222 0.909130 0.150702
0.998277 0.904182 0.148896
0.998276 0.899079 0.146955
0.633068 0.934944 0.125794
0.636685 0.934779 0.125308
0.641156 0.934473 0.124796
0.647243 0.933884 0.124247
0.655593 0.932907 0.123641
0.666661 0.931484 0.122949
0.680643 0.929633 0.122136
0.697450 0.927438 0.121166
0.716719 0.925034 0.120022
0.737875 0.922585 0.118717
0.760225 0.920259 0.117325
0.783045 0.918207 0.115999
0.805682 0.916561 0.114989
0.827622 0.915442 0.114631
0.848542 0.914959 0.115302
0.868303 0.915205 0.117340
0.886910 0.916244 0.120927
0.904428 0.918082 0.125991
0.930874 0.930384 0.123942
0.944851 0.931756 0.132642
0.957429 0.933610 0.140851
0.968375 0.935610 0.147923
0.977472 0.937395 0.153472
0.984625 0.938643 0.157449
0.989909 0.939134 0.160051
0.993556 0.938780 0.161559
0.995903 0.937598 0.162254
0.997312 0.935675 0.162353
0.998104 0.933128 0.162011
0.998527 0.930078 0.161327
0.998745 0.926648 0.160376
0.998854 0.922968 0.159229
0.998908 0.919177 0.157965
0.646238 0.953437 0.126899
0.649244 0.953372 0.126429
0.653031 0.953164 0.125934
0.658313 0.952660 0.125405
0.665732 0.951729 0.124822
0.675784 0.950285 0.124155
0.688734 0.948302 0.123361
0.704562 0.945828 0.122398
0.722961 0.942980 0.121225
0.743376 0.939917 0.119840
0.765101 0.936816 0.118293
0.787380 0.933856 0.116726
0.809513 0.931201 0.115392
0.830944 0.929009 0.114652
0.851320 0.927424 0.114936
0.870489 0.926575 0.116652
0.888464 0.926559 0.120065
0.905332 0.927414 0.125184
0.924242 0.932166 0.129141
0.945647 0.940824 0.131543
0.957826 0.942073 0.140619
0.968492 0.943672 0.148692
0.977433 0.945262 0.155260
0.984538 0.946515 0.160180
0.989848 0.947196 0.163595
0.993563 0.947193 0.165789
