lut/BlueArchitecture.cube
TITLE "Blue Architecture"
# Created by Photon 3D ColorGrading
DOMAIN_MIN 0 0 0
DOMAIN_MAX 1 1 1
LUT_3D_SIZE 5
0.000017 0.000017 0.091356
0.163100 0.000026 0.011149
0.343886 0.002049 0.000151
0.749856 0.089209 0.000059
0.866088 0.137734 0.000177
0.017878 0.106849 0.012836
0.142581 0.090872 0.004251
0.354235 0.113343 0.002256
0.752242 0.199162 0.000847
0.849870 0.190627 0.000700
0.254528 0.443732 0.034366
0.379961 0.434544 0.040664
0.629801 0.509319 0.074926
0.908094 0.594676 0.050865
0.927707 0.528874 0.032065
0.613724 0.908601 0.123230
0.704707 0.899360 0.117704
0.882051 0.900120 0.121881
0.989499 0.926544 0.154358
0.998276 0.899079 0.146955
0.664447 0.981202 0.128296
0.713009 0.972901 0.124759
0.872293 0.941037 0.119298
0.984677 0.958355 0.165495
0.999766 0.957808 0.179468
0.000010 0.000396 0.304779
0.094653 0.000948 0.213972
0.311567 0.007057 0.098330
0.757431 0.106059 0.042821
0.862163 0.139576 0.022003
0.006070 0.109326 0.246349
0.086025 0.095711 0.191459
0.353944 0.094260 0.081743
0.794221 0.172824 0.027101
0.867422 0.150370 0.006186
0.188440 0.468710 0.283028
0.337868 0.508055 0.226038
0.607595 0.507167 0.147054
0.891192 0.512377 0.049377
0.895832 0.398603 0.019884
0.580852 0.920219 0.285384
0.668018 0.937370 0.202159
0.851153 0.907326 0.151567
0.976390 0.895835 0.158413
0.995108 0.864911 0.141415
0.645166 0.982407 0.209019
0.672209 0.982544 0.147350
0.818740 0.952866 0.130212
0.976602 0.958364 0.166210
0.999940 0.958076 0.186298
0.000054 0.036633 0.584868
0.058123 0.041543 0.544007
0.233723 0.081092 0.468182
0.722813 0.221843 0.415935
0.816151 0.224792 0.309957
0.001323 0.174675 0.624410
0.045345 0.152541 0.617067
0.253883 0.134631 0.467862
0.751336 0.221366 0.309584
0.828508 0.207696 0.197011
0.099248 0.562268 0.748770
0.152189 0.551611 0.716720
0.383105 0.473145 0.533264
0.824869 0.433539 0.248851
0.885880 0.317192 0.093549
0.379760 0.954898 0.757896
0.467846 0.955856 0.650857
0.676238 0.919274 0.491892
0.937691 0.859964 0.338124
0.986557 0.772986 0.171072
0.477864 0.994028 0.661204
0.557849 0.993239 0.491057
0.709004 0.976562 0.338279
0.931043 0.951553 0.271339
0.999388 0.958869 0.225126
0.000555 0.198488 0.840304
0.035088 0.199810 0.848056
0.152041 0.240460 0.869017
0.540828 0.346983 0.931578
0.648655 0.352745 0.902584
0.001974 0.286637 0.873274
0.025008 0.259549 0.870930
0.120081 0.252752 0.872213
0.508964 0.337196 0.881194
0.674731 0.343534 0.844855
0.086704 0.630960 0.971528
0.071777 0.537332 0.950813
0.137657 0.448218 0.910102
0.513456 0.426746 0.834728
0.760578 0.372802 0.679317
0.162028 0.968554 0.989244
0.191611 0.930820 0.973952
0.288555 0.874212 0.940298
0.659889 0.801100 0.829211
0.941054 0.689475 0.587697
0.176144 0.998839 0.972265
0.212439 0.999531 0.950691
0.342844 0.998401 0.878743
0.729323 0.986621 0.737676
0.995956 0.978123 0.629180
0.000436 0.237624 0.884796
0.020243 0.234965 0.890343
0.123120 0.260414 0.893924
0.444112 0.348872 0.961056
0.587892 0.377688 0.985631
0.000366 0.269724 0.893524
0.005630 0.244217 0.893230
0.077061 0.249384 0.906782
0.400809 0.343178 0.952435
0.588694 0.382053 0.986371
0.052222 0.528851 0.968126
0.024415 0.411301 0.942945
0.057966 0.341847 0.929492
0.276645 0.367977 0.938106
0.593756 0.399164 0.987888
0.168078 0.919017 0.998853
0.164797 0.852271 0.997751
0.171438 0.728974 0.991636
0.286655 0.650393 0.989275
0.713974 0.629082 0.998182
0.152551 0.999809 0.999809
0.159779 0.999932 0.999932
0.177536 0.999203 0.999210
0.309763 0.996436 0.998905
0.923883 0.999989 0.999989
